images/16757661.svg

<?xml version="1.0" encoding="UTF-8"?>
<svg xmlns="http://www.w3.org/2000/svg" xmlns:xlink="http://www.w3.org/1999/xlink" width="300pt" height="300pt" viewBox="0 0 300 300" version="1.1">
<defs>
<g>
<symbol overflow="visible" id="glyph0-0">
<path style="stroke:none;" d="M 0.453125 1.59375 L 0.453125 -6.34375 L 4.953125 -6.34375 L 4.953125 1.59375 Z M 0.953125 1.09375 L 4.453125 1.09375 L 4.453125 -5.84375 L 0.953125 -5.84375 Z M 0.953125 1.09375 "/>
</symbol>
<symbol overflow="visible" id="glyph0-1">
<path style="stroke:none;" d="M 3.546875 -5.953125 C 2.898438 -5.953125 2.382812 -5.710938 2 -5.234375 C 1.625 -4.753906 1.4375 -4.101562 1.4375 -3.28125 C 1.4375 -2.445312 1.625 -1.789062 2 -1.3125 C 2.382812 -0.832031 2.898438 -0.59375 3.546875 -0.59375 C 4.191406 -0.59375 4.703125 -0.832031 5.078125 -1.3125 C 5.453125 -1.789062 5.640625 -2.445312 5.640625 -3.28125 C 5.640625 -4.101562 5.453125 -4.753906 5.078125 -5.234375 C 4.703125 -5.710938 4.191406 -5.953125 3.546875 -5.953125 Z M 3.546875 -6.6875 C 4.460938 -6.6875 5.195312 -6.375 5.75 -5.75 C 6.300781 -5.132812 6.578125 -4.3125 6.578125 -3.28125 C 6.578125 -2.238281 6.300781 -1.410156 5.75 -0.796875 C 5.195312 -0.179688 4.460938 0.125 3.546875 0.125 C 2.617188 0.125 1.878906 -0.179688 1.328125 -0.796875 C 0.773438 -1.410156 0.5 -2.238281 0.5 -3.28125 C 0.5 -4.3125 0.773438 -5.132812 1.328125 -5.75 C 1.878906 -6.375 2.617188 -6.6875 3.546875 -6.6875 Z M 3.546875 -6.6875 "/>
</symbol>
<symbol overflow="visible" id="glyph0-2">
<path style="stroke:none;" d="M 0.890625 -6.5625 L 1.765625 -6.5625 L 1.765625 -3.875 L 5 -3.875 L 5 -6.5625 L 5.890625 -6.5625 L 5.890625 0 L 5 0 L 5 -3.125 L 1.765625 -3.125 L 1.765625 0 L 0.890625 0 Z M 0.890625 -6.5625 "/>
</symbol>
<symbol overflow="visible" id="glyph0-3">
<path style="stroke:none;" d="M 0.890625 -6.5625 L 4.65625 -6.5625 L 4.65625 -5.8125 L 1.765625 -5.8125 L 1.765625 -3.875 L 4.375 -3.875 L 4.375 -3.140625 L 1.765625 -3.140625 L 1.765625 0 L 0.890625 0 Z M 0.890625 -6.5625 "/>
</symbol>
</g>
</defs>
<g id="surface49425">
<rect x="0" y="0" width="300" height="300" style="fill:rgb(100%,100%,100%);fill-opacity:1;stroke:none;"/>
<path style="fill:none;stroke-width:1.2;stroke-linecap:butt;stroke-linejoin:miter;stroke:rgb(0%,0%,0%);stroke-opacity:1;stroke-miterlimit:10;" d="M 104.625 190.519531 L 121.394531 178.347656 "/>
<path style="fill:none;stroke-width:1.2;stroke-linecap:butt;stroke-linejoin:miter;stroke:rgb(0%,0%,0%);stroke-opacity:1;stroke-miterlimit:10;" d="M 121.394531 178.347656 L 141.097656 184.761719 "/>
<path style="fill:none;stroke-width:1.2;stroke-linecap:butt;stroke-linejoin:miter;stroke:rgb(0%,0%,0%);stroke-opacity:1;stroke-miterlimit:10;" d="M 121.40625 157.632812 L 121.394531 178.347656 "/>
<path style="fill:none;stroke-width:1.2;stroke-linecap:butt;stroke-linejoin:miter;stroke:rgb(0%,0%,0%);stroke-opacity:1;stroke-miterlimit:10;" d="M 141.097656 184.761719 L 153.28125 168.007812 "/>
<path style="fill:none;stroke-width:1.2;stroke-linecap:butt;stroke-linejoin:miter;stroke:rgb(0%,0%,0%);stroke-opacity:1;stroke-miterlimit:10;" d="M 153.28125 168.007812 L 173.890625 165.851562 "/>
<path style="fill:none;stroke-width:1.2;stroke-linecap:butt;stroke-linejoin:miter;stroke:rgb(0%,0%,0%);stroke-opacity:1;stroke-miterlimit:10;" d="M 141.113281 151.238281 L 153.28125 168.007812 "/>
<path style="fill:none;stroke-width:1.2;stroke-linecap:butt;stroke-linejoin:miter;stroke:rgb(0%,0%,0%);stroke-opacity:1;stroke-miterlimit:10;" d="M 173.890625 165.851562 L 186.058594 182.621094 "/>
<path style="fill:none;stroke-width:1.2;stroke-linecap:butt;stroke-linejoin:miter;stroke:rgb(0%,0%,0%);stroke-opacity:1;stroke-miterlimit:10;" d="M 182.324219 146.929688 L 173.890625 165.851562 "/>
<path style="fill:none;stroke-width:1.2;stroke-linecap:butt;stroke-linejoin:miter;stroke:rgb(0%,0%,0%);stroke-opacity:1;stroke-miterlimit:10;" d="M 186.058594 182.621094 L 206.664062 180.464844 "/>
<path style="fill:none;stroke-width:1.2;stroke-linecap:butt;stroke-linejoin:miter;stroke:rgb(0%,0%,0%);stroke-opacity:1;stroke-miterlimit:10;" d="M 206.664062 180.464844 L 215.101562 161.542969 "/>
<path style="fill:none;stroke-width:1.2;stroke-linecap:butt;stroke-linejoin:miter;stroke:rgb(0%,0%,0%);stroke-opacity:1;stroke-miterlimit:10;" d="M 215.101562 161.542969 L 235.707031 159.390625 "/>
<path style="fill:none;stroke-width:1.2;stroke-linecap:butt;stroke-linejoin:miter;stroke:rgb(0%,0%,0%);stroke-opacity:1;stroke-miterlimit:10;" d="M 216.65625 156.480469 L 233.140625 154.757812 "/>
<path style="fill:none;stroke-width:1.2;stroke-linecap:butt;stroke-linejoin:miter;stroke:rgb(0%,0%,0%);stroke-opacity:1;stroke-miterlimit:10;" d="M 202.933594 144.777344 L 215.101562 161.542969 "/>
<path style="fill:none;stroke-width:1.2;stroke-linecap:butt;stroke-linejoin:miter;stroke:rgb(0%,0%,0%);stroke-opacity:1;stroke-miterlimit:10;" d="M 235.707031 159.390625 L 244.144531 140.464844 "/>
<path style="fill:none;stroke-width:1.2;stroke-linecap:butt;stroke-linejoin:miter;stroke:rgb(0%,0%,0%);stroke-opacity:1;stroke-miterlimit:10;" d="M 244.398438 142.890625 L 254.699219 141.8125 "/>
<path style="fill:none;stroke-width:1.2;stroke-linecap:butt;stroke-linejoin:miter;stroke:rgb(100%,0%,0%);stroke-opacity:1;stroke-miterlimit:10;" d="M 254.699219 141.8125 L 265.003906 140.734375 "/>
<path style="fill:none;stroke-width:1.2;stroke-linecap:butt;stroke-linejoin:miter;stroke:rgb(0%,0%,0%);stroke-opacity:1;stroke-miterlimit:10;" d="M 243.890625 138.042969 L 254.195312 136.964844 "/>
<path style="fill:none;stroke-width:1.2;stroke-linecap:butt;stroke-linejoin:miter;stroke:rgb(100%,0%,0%);stroke-opacity:1;stroke-miterlimit:10;" d="M 254.195312 136.964844 L 264.496094 135.886719 "/>
<path style="fill:none;stroke-width:1.2;stroke-linecap:butt;stroke-linejoin:miter;stroke:rgb(0%,0%,0%);stroke-opacity:1;stroke-miterlimit:10;" d="M 244.144531 140.464844 L 231.976562 123.699219 "/>
<path style=" stroke:none;fill-rule:nonzero;fill:rgb(100%,100%,100%);fill-opacity:1;" d="M 260.75 132.8125 L 268.75 132.8125 L 268.75 143.8125 L 260.75 143.8125 Z M 260.75 132.8125 "/>
<g style="fill:rgb(100%,0%,0%);fill-opacity:1;">
  <use xlink:href="#glyph0-1" x="260.75" y="141.475586"/>
</g>
<path style="fill:none;stroke-width:1.2;stroke-linecap:butt;stroke-linejoin:miter;stroke:rgb(0%,0%,0%);stroke-opacity:1;stroke-miterlimit:10;" d="M 231.976562 123.699219 L 211.367188 125.851562 "/>
<path style="fill:none;stroke-width:1.2;stroke-linecap:butt;stroke-linejoin:miter;stroke:rgb(0%,0%,0%);stroke-opacity:1;stroke-miterlimit:10;" d="M 230.421875 128.761719 L 213.9375 130.484375 "/>
<path style="fill:none;stroke-width:1.2;stroke-linecap:butt;stroke-linejoin:miter;stroke:rgb(0%,0%,0%);stroke-opacity:1;stroke-miterlimit:10;" d="M 211.367188 125.851562 L 202.933594 144.777344 "/>
<path style="fill:none;stroke-width:1.2;stroke-linecap:butt;stroke-linejoin:miter;stroke:rgb(0%,0%,0%);stroke-opacity:1;stroke-miterlimit:10;" d="M 202.933594 144.777344 L 182.324219 146.929688 "/>
<path style=" stroke:none;fill-rule:nonzero;fill:rgb(0%,0%,0%);fill-opacity:1;" d="M 202.933594 144.777344 L 200.207031 132.300781 L 193.808594 135.84375 Z M 202.933594 144.777344 "/>
<path style="fill:none;stroke-width:1.2;stroke-linecap:butt;stroke-linejoin:miter;stroke:rgb(0%,0%,0%);stroke-opacity:1;stroke-miterlimit:10;" d="M 182.324219 146.929688 L 170.15625 130.160156 "/>
<path style="fill:none;stroke-width:1;stroke-linecap:butt;stroke-linejoin:miter;stroke:rgb(0%,0%,0%);stroke-opacity:1;stroke-miterlimit:10;" d="M 182.324219 146.929688 L 182.324219 146.929688 M 183.988281 144.433594 L 182.347656 143.929688 M 185.652344 141.9375 L 182.367188 140.929688 M 187.316406 139.441406 L 182.386719 137.929688 M 188.976562 136.941406 L 182.40625 134.929688 M 189.40625 136.304688 L 182.414062 134.160156 "/>
<path style="fill:none;stroke-width:1.2;stroke-linecap:butt;stroke-linejoin:miter;stroke:rgb(0%,0%,0%);stroke-opacity:1;stroke-miterlimit:10;" d="M 170.15625 130.160156 L 149.550781 132.316406 "/>
<path style="fill:none;stroke-width:1.2;stroke-linecap:butt;stroke-linejoin:miter;stroke:rgb(0%,0%,0%);stroke-opacity:1;stroke-miterlimit:10;" d="M 170.15625 130.160156 L 174.375 120.699219 "/>
<path style="fill:none;stroke-width:1.2;stroke-linecap:butt;stroke-linejoin:miter;stroke:rgb(100%,0%,0%);stroke-opacity:1;stroke-miterlimit:10;" d="M 174.375 120.699219 L 178.59375 111.238281 "/>
<path style="fill:none;stroke-width:1.2;stroke-linecap:butt;stroke-linejoin:miter;stroke:rgb(0%,0%,0%);stroke-opacity:1;stroke-miterlimit:10;" d="M 149.550781 132.316406 L 141.113281 151.238281 "/>
<path style="fill:none;stroke-width:1.2;stroke-linecap:butt;stroke-linejoin:miter;stroke:rgb(0%,0%,0%);stroke-opacity:1;stroke-miterlimit:10;" d="M 141.113281 151.238281 L 121.40625 157.632812 "/>
<path style="fill:none;stroke-width:1;stroke-linecap:butt;stroke-linejoin:miter;stroke:rgb(0%,0%,0%);stroke-opacity:1;stroke-miterlimit:10;" d="M 141.113281 151.238281 L 141.113281 151.238281 M 139.847656 148.519531 L 138.992188 149.117188 M 138.582031 145.800781 L 136.871094 146.996094 M 137.316406 143.078125 L 134.753906 144.871094 M 136.050781 140.359375 L 132.632812 142.75 M 134.785156 137.640625 L 130.511719 140.628906 M 133.519531 134.921875 L 128.390625 138.507812 M 132.253906 132.199219 L 126.269531 136.382812 M 132.234375 132.164062 L 126.242188 136.355469 "/>
<path style=" stroke:none;fill-rule:nonzero;fill:rgb(0%,0%,0%);fill-opacity:1;" d="M 121.40625 157.632812 L 100.417969 156.148438 L 101.179688 163.421875 Z M 121.40625 157.632812 "/>
<path style="fill:none;stroke-width:1.2;stroke-linecap:butt;stroke-linejoin:miter;stroke:rgb(0%,0%,0%);stroke-opacity:1;stroke-miterlimit:10;" d="M 121.40625 157.632812 L 118.039062 147.835938 "/>
<path style="fill:none;stroke-width:1.2;stroke-linecap:butt;stroke-linejoin:miter;stroke:rgb(100%,0%,0%);stroke-opacity:1;stroke-miterlimit:10;" d="M 118.039062 147.835938 L 114.671875 138.039062 "/>
<path style="fill:none;stroke-width:1.2;stroke-linecap:butt;stroke-linejoin:miter;stroke:rgb(0%,0%,0%);stroke-opacity:1;stroke-miterlimit:10;" d="M 98.574219 158.792969 L 94.355469 168.253906 "/>
<path style="fill:none;stroke-width:1.2;stroke-linecap:butt;stroke-linejoin:miter;stroke:rgb(100%,0%,0%);stroke-opacity:1;stroke-miterlimit:10;" d="M 94.355469 168.253906 L 90.136719 177.714844 "/>
<path style="fill:none;stroke-width:1.2;stroke-linecap:butt;stroke-linejoin:miter;stroke:rgb(0%,0%,0%);stroke-opacity:1;stroke-miterlimit:10;" d="M 103.027344 160.777344 L 98.808594 170.238281 "/>
<path style="fill:none;stroke-width:1.2;stroke-linecap:butt;stroke-linejoin:miter;stroke:rgb(100%,0%,0%);stroke-opacity:1;stroke-miterlimit:10;" d="M 98.808594 170.238281 L 94.589844 179.699219 "/>
<path style="fill:none;stroke-width:1.2;stroke-linecap:butt;stroke-linejoin:miter;stroke:rgb(0%,0%,0%);stroke-opacity:1;stroke-miterlimit:10;" d="M 100.800781 159.785156 L 88.632812 143.019531 "/>
<path style=" stroke:none;fill-rule:nonzero;fill:rgb(100%,100%,100%);fill-opacity:1;" d="M 84.363281 173.207031 L 92.363281 173.207031 L 92.363281 184.207031 L 84.363281 184.207031 Z M 84.363281 173.207031 "/>
<g style="fill:rgb(100%,0%,0%);fill-opacity:1;">
  <use xlink:href="#glyph0-1" x="84.363281" y="181.870117"/>
</g>
<path style="fill:none;stroke-width:1.2;stroke-linecap:butt;stroke-linejoin:miter;stroke:rgb(0%,0%,0%);stroke-opacity:1;stroke-miterlimit:10;" d="M 88.632812 143.019531 L 78.328125 144.09375 "/>
<path style="fill:none;stroke-width:1.2;stroke-linecap:butt;stroke-linejoin:miter;stroke:rgb(100%,0%,0%);stroke-opacity:1;stroke-miterlimit:10;" d="M 78.328125 144.09375 L 68.023438 145.171875 "/>
<path style="fill:none;stroke-width:1.2;stroke-linecap:butt;stroke-linejoin:miter;stroke:rgb(100%,0%,0%);stroke-opacity:1;stroke-miterlimit:10;" d="M 68.023438 145.171875 L 61.941406 136.789062 "/>
<path style="fill:none;stroke-width:1.2;stroke-linecap:butt;stroke-linejoin:miter;stroke:rgb(0%,0%,0%);stroke-opacity:1;stroke-miterlimit:10;" d="M 61.941406 136.789062 L 55.855469 128.402344 "/>
<path style=" stroke:none;fill-rule:nonzero;fill:rgb(100%,100%,100%);fill-opacity:1;" d="M 64.023438 139.671875 L 72.023438 139.671875 L 72.023438 150.671875 L 64.023438 150.671875 Z M 64.023438 139.671875 "/>
<g style="fill:rgb(100%,0%,0%);fill-opacity:1;">
  <use xlink:href="#glyph0-1" x="64.023438" y="148.334961"/>
</g>
<path style="fill:none;stroke-width:1.2;stroke-linecap:butt;stroke-linejoin:miter;stroke:rgb(0%,0%,0%);stroke-opacity:1;stroke-miterlimit:10;" d="M 58.082031 129.398438 L 62.300781 119.933594 "/>
<path style="fill:none;stroke-width:1.2;stroke-linecap:butt;stroke-linejoin:miter;stroke:rgb(100%,0%,0%);stroke-opacity:1;stroke-miterlimit:10;" d="M 62.300781 119.933594 L 66.519531 110.472656 "/>
<path style="fill:none;stroke-width:1.2;stroke-linecap:butt;stroke-linejoin:miter;stroke:rgb(0%,0%,0%);stroke-opacity:1;stroke-miterlimit:10;" d="M 53.628906 127.410156 L 57.847656 117.949219 "/>
<path style="fill:none;stroke-width:1.2;stroke-linecap:butt;stroke-linejoin:miter;stroke:rgb(100%,0%,0%);stroke-opacity:1;stroke-miterlimit:10;" d="M 57.847656 117.949219 L 62.066406 108.488281 "/>
<path style="fill:none;stroke-width:1.2;stroke-linecap:butt;stroke-linejoin:miter;stroke:rgb(0%,0%,0%);stroke-opacity:1;stroke-miterlimit:10;" d="M 55.855469 128.402344 L 35.25 130.558594 "/>
<path style=" stroke:none;fill-rule:nonzero;fill:rgb(100%,100%,100%);fill-opacity:1;" d="M 60.292969 103.980469 L 68.292969 103.980469 L 68.292969 114.980469 L 60.292969 114.980469 Z M 60.292969 103.980469 "/>
<g style="fill:rgb(100%,0%,0%);fill-opacity:1;">
  <use xlink:href="#glyph0-1" x="60.292969" y="112.643555"/>
</g>
<path style=" stroke:none;fill-rule:nonzero;fill:rgb(100%,100%,100%);fill-opacity:1;" d="M 99.671875 132.539062 L 114.671875 132.539062 L 114.671875 143.539062 L 99.671875 143.539062 Z M 99.671875 132.539062 "/>
<g style="fill:rgb(100%,0%,0%);fill-opacity:1;">
  <use xlink:href="#glyph0-2" x="99.671875" y="141.202148"/>
  <use xlink:href="#glyph0-1" x="106.686523" y="141.202148"/>
</g>
<path style=" stroke:none;fill-rule:nonzero;fill:rgb(100%,100%,100%);fill-opacity:1;" d="M 171.59375 105.738281 L 186.59375 105.738281 L 186.59375 116.738281 L 171.59375 116.738281 Z M 171.59375 105.738281 "/>
<g style="fill:rgb(100%,0%,0%);fill-opacity:1;">
  <use xlink:href="#glyph0-1" x="171.59375" y="114.401367"/>
  <use xlink:href="#glyph0-2" x="178.935547" y="114.401367"/>
</g>
<path style=" stroke:none;fill-rule:nonzero;fill:rgb(100%,100%,100%);fill-opacity:1;" d="M 182.910156 129.734375 L 188.910156 129.734375 L 188.910156 140.734375 L 182.910156 140.734375 Z M 182.910156 129.734375 "/>
<g style="fill:rgb(20%,80%,80%);fill-opacity:1;">
  <use xlink:href="#glyph0-3" x="182.910156" y="138.397461"/>
</g>
</g>
</svg>

<svg xmlns="http://www.w3.org/2000/svg" xmlns:xlink="http://www.w3.org/1999/xlink" width="300pt" height="300pt" viewBox="0 0 300 300"><defs><symbol overflow="visible"><path d="M.453 1.594v-7.938h4.5v7.938zm.5-.5h3.5v-6.938h-3.5zm0 0"/></symbol><symbol overflow="visible" id="a"><path d="M3.547-5.953c-.65 0-1.164.242-1.547.72-.375.48-.563 1.13-.563 1.952 0 .835.188 1.49.563 1.967.383.48.898.72 1.547.72.644 0 1.156-.24 1.53-.72.376-.476.564-1.132.564-1.968 0-.822-.187-1.474-.562-1.954-.375-.477-.887-.72-1.53-.72zm0-.734c.914 0 1.648.312 2.203.937.55.617.828 1.438.828 2.47 0 1.042-.277 1.87-.828 2.483-.555.617-1.29.922-2.203.922-.93 0-1.668-.305-2.22-.922C.774-1.41.5-2.237.5-3.28c0-1.033.273-1.853.828-2.47.55-.625 1.29-.938 2.22-.938zm0 0"/></symbol><symbol overflow="visible" id="b"><path d="M.89-6.563h.876v2.688H5v-2.688h.89V0H5v-3.125H1.766V0H.89zm0 0"/></symbol><symbol overflow="visible" id="c"><path d="M.89-6.563h3.766v.75h-2.89v1.938h2.61v.734h-2.61V0H.89zm0 0"/></symbol></defs><g><path fill="#fff" d="M0 0h300v300H0z"/><path d="M104.625 190.52l16.77-12.172M121.395 178.348l19.703 6.414M121.406 157.633l-.01 20.715M141.098 184.762l12.183-16.754M153.28 168.008l20.61-2.156M141.113 151.238l12.168 16.77M173.89 165.852l12.17 16.77M182.324 146.93l-8.433 18.922M186.06 182.62l20.604-2.155M206.664 180.465l8.438-18.922M215.102 161.543l20.605-2.152M216.656 156.48l16.485-1.722M202.934 144.777l12.168 16.766M235.707 159.39l8.438-18.925M244.398 142.89l10.3-1.077" stroke-width="1.2" stroke="#000" stroke-miterlimit="10" fill="none"/><path d="M254.7 141.813l10.304-1.08" stroke-width="1.2" stroke="#f00" stroke-miterlimit="10" fill="none"/><path d="M243.89 138.043l10.305-1.078" stroke-width="1.2" stroke="#000" stroke-miterlimit="10" fill="none"/><path d="M254.195 136.965l10.3-1.078" stroke-width="1.2" stroke="#f00" stroke-miterlimit="10" fill="none"/><path d="M244.145 140.465L231.977 123.7" stroke-width="1.2" stroke="#000" stroke-miterlimit="10" fill="none"/><path d="M260.75 132.813h8v11h-8zm0 0" fill="#fff"/><use xlink:href="#a" x="260.75" y="141.476" fill="#f00"/><path d="M231.977 123.7l-20.61 2.152M230.422 128.762l-16.484 1.722M211.367 125.852l-8.433 18.925M202.934 144.777l-20.61 2.153" stroke-width="1.2" stroke="#000" stroke-miterlimit="10" fill="none"/><path d="M202.934 144.777l-2.727-12.476-6.398 3.544zm0 0"/><path d="M182.324 146.93l-12.168-16.77" stroke-width="1.2" stroke="#000" stroke-miterlimit="10" fill="none"/><path d="M182.324 146.93m1.664-2.496l-1.64-.504m3.304-1.993l-3.285-1.007m4.95-1.49l-4.93-1.51m6.59-.99l-6.57-2.01m7 1.375l-6.993-2.145" stroke="#000" stroke-miterlimit="10" fill="none"/><path d="M170.156 130.16l-20.605 2.156M170.156 130.16l4.22-9.46" stroke-width="1.2" stroke="#000" stroke-miterlimit="10" fill="none"/><path d="M174.375 120.7l4.22-9.462" stroke-width="1.2" stroke="#f00" stroke-miterlimit="10" fill="none"/><path d="M149.55 132.316l-8.437 18.922M141.113 151.238l-19.707 6.395" stroke-width="1.2" stroke="#000" stroke-miterlimit="10" fill="none"/><path d="M141.113 151.238m-1.265-2.718l-.856.597m-.41-3.316l-1.71 1.196m.444-3.918l-2.562 1.793m1.297-4.51l-3.417 2.39m2.152-5.11l-4.273 2.99m3.008-5.708l-5.13 3.586m3.864-6.31l-5.984 4.185m5.964-4.22l-5.992 4.192" stroke="#000" stroke-miterlimit="10" fill="none"/><path d="M121.406 157.633l-20.988-1.485.762 7.274zm0 0"/><path d="M121.406 157.633l-3.367-9.797" stroke-width="1.2" stroke="#000" stroke-miterlimit="10" fill="none"/><path d="M118.04 147.836l-3.368-9.797" stroke-width="1.2" stroke="#f00" stroke-miterlimit="10" fill="none"/><path d="M98.574 158.793l-4.22 9.46" stroke-width="1.2" stroke="#000" stroke-miterlimit="10" fill="none"/><path d="M94.355 168.254l-4.218 9.46" stroke-width="1.2" stroke="#f00" stroke-miterlimit="10" fill="none"/><path d="M103.027 160.777l-4.218 9.46" stroke-width="1.2" stroke="#000" stroke-miterlimit="10" fill="none"/><path d="M98.81 170.238l-4.22 9.46" stroke-width="1.2" stroke="#f00" stroke-miterlimit="10" fill="none"/><path d="M100.8 159.785L88.634 143.02" stroke-width="1.2" stroke="#000" stroke-miterlimit="10" fill="none"/><path d="M84.363 173.207h8v11h-8zm0 0" fill="#fff"/><use xlink:href="#a" x="84.363" y="181.87" fill="#f00"/><path d="M88.633 143.02l-10.305 1.074" stroke-width="1.2" stroke="#000" stroke-miterlimit="10" fill="none"/><path d="M78.328 144.094l-10.305 1.078M68.023 145.172l-6.082-8.383" stroke-width="1.2" stroke="#f00" stroke-miterlimit="10" fill="none"/><path d="M61.94 136.79l-6.085-8.388" stroke-width="1.2" stroke="#000" stroke-miterlimit="10" fill="none"/><path d="M64.023 139.672h8v11h-8zm0 0" fill="#fff"/><use xlink:href="#a" x="64.023" y="148.335" fill="#f00"/><path d="M58.082 129.398l4.22-9.464" stroke-width="1.2" stroke="#000" stroke-miterlimit="10" fill="none"/><path d="M62.3 119.934l4.22-9.46" stroke-width="1.2" stroke="#f00" stroke-miterlimit="10" fill="none"/><path d="M53.63 127.41l4.218-9.46" stroke-width="1.2" stroke="#000" stroke-miterlimit="10" fill="none"/><path d="M57.848 117.95l4.218-9.462" stroke-width="1.2" stroke="#f00" stroke-miterlimit="10" fill="none"/><path d="M55.855 128.402L35.25 130.56" stroke-width="1.2" stroke="#000" stroke-miterlimit="10" fill="none"/><path d="M60.293 103.98h8v11h-8zm0 0" fill="#fff"/><use xlink:href="#a" x="60.293" y="112.644" fill="#f00"/><path d="M99.672 132.54h15v11h-15zm0 0" fill="#fff"/><g fill="#f00"><use xlink:href="#b" x="99.672" y="141.202"/><use xlink:href="#a" x="106.687" y="141.202"/></g><path d="M171.594 105.738h15v11h-15zm0 0" fill="#fff"/><g fill="#f00"><use xlink:href="#a" x="171.594" y="114.401"/><use xlink:href="#b" x="178.936" y="114.401"/></g><path d="M182.91 129.734h6v11h-6zm0 0" fill="#fff"/><use xlink:href="#c" x="182.91" y="138.397" fill="#3cc"/></g></svg>
